X:7
T:D'ar Pantekost
T:(Sant Adrien)
M:6/8
L:1/8
K:A
ECD|E3 FGB|A3 ABc|d3 FGE|A3 ccc|c3 BAG|
F3 FGF|E3 AGA|B3 ccc|c3 BAG|F3 FGF|E2A c2B|HA3z2z||
